X:1
T:Bury The Cabbage
M:2/4
L:1/8
R:polka
K:A
|:c/d/|
| ec ec | dB BB/c/ | dc dB | cd e>c/d/ |
 | ec ec | dB BB/c/ |1 dc dB | cA A :|2 df eG | BA A |
|:c/d/ | 
| ec ea/=g/ | fd de/f/ | gf gg/a/ | ba ac/d/ |
| ec ea/=g/ | fd de/f/ |1 g>f ed | cA A :|2 gf ga | ba a2 |
